!!!Genre:	Bitshok
!!!Mode:	Major
!!!Edition:	2015
!!!Listening/dance:	dance
!!!Free rhythm?:	No
!!!Secondary Modes:	All major
!!!One_Mode:	yes
**kern
*I"P1
*clefG2
*k[f#]
*G:
*M2/4
*>A
8d
=1!|:
*^
(4.gT	2G
8d)	.
=2	=2
(4.gT	2G
8d)	.
=3	=3
(8gTL	4G
8dJ)	.
(8gTL	4G
8dJ)	.
=4	=4
(8gL	4G
8dJ)	.
(8gL	4G
8dJ)	.
=5	=5
8.eL	2G
16dJk	.
(16eLL	.
16d	.
16e	.
16f#JJ)	.
*v	*v
=6
*^
8gL	2G
(16gL	.
16f#JJ)	.
(16gLL	.
16a	.
16b	.
16gJJ)	.
=7	=7
8.eL	2G
16dJk	.
16eLL	.
16d	.
16e	.
16f#JJ	.
=8	=8
8gL	2G
(16gL	.
16f#JJ)	.
(8gL	.
8dJ)	.
*v	*v
=9:|!
*>B
(16aLL
16b
16cc
16ddJJ)
4b
=10
(16bLL
16a)
(16a
16gJJ)
4b
=11
16aLL
16b
16cc
16ddJJ
4b
=12
(16bLL
16a)
(16a
16gJJ)
(8gL
8dJ)
=13
(16ffnLL
16ee
16dd
16ccJJ)
4b
=14
(16bLL
16a)
(16a
16gJJ)
4b
=15
(16ffnLL
16ee
16dd
16ccJJ)
4b
=16
(16bLL
16a)
(16a
16gJJ)
(8gL
8dJ)
=17||
*>C
16dLL
16gJ
8bJ
16dLL
16gJ
8bJ
=18
16dLL
16gJ
8bJ
(16bLL
16a)
(16a
16gJJ)
=19
16dLL
16gJ
8bJ
16dLL
16gJ
8bJ
=20
(16bLL
16a)
(16a
16gJJ)
4dd
=21
16dLL
16gJ
8bJ
16dLL
16gJ
8bJ
=22
16dLL
16gJ
8bJ
(16bLL
16a)
(16a
16gJJ)
=23
(16dLL
16gJ)
8bJ
16dLL
16gJ
8bJ
=24
(16bLL
16a)
(16a
16gJJ)
4g
==
*-
